static/img/in-field/switches-off-focus-dark.svg

<svg fill="none" height="56" viewBox="0 0 78 56" width="78" xmlns="http://www.w3.org/2000/svg"><rect fill="#90939f" height="32" rx="16" transform="matrix(1 0 0 -1 7 44)" width="64"/><path d="m32.3334 28c0 5.1546-4.1787 9.3333-9.3333 9.3333-5.1547 0-9.3334-4.1787-9.3334-9.3333 0-5.1547 4.1787-9.3333 9.3334-9.3333 5.1546 0 9.3333 4.1786 9.3333 9.3333z" fill="#fff"/><path clip-rule="evenodd" d="m23 5h32c12.7025 0 23 10.2975 23 23s-10.2975 23-23 23h-32c-12.7025 0-23-10.2975-23-23s10.2975-23 23-23zm0 4c-10.4934 0-19 8.5066-19 19s8.5066 19 19 19h32c10.4934 0 19-8.5066 19-19s-8.5066-19-19-19z" fill="#019aeb" fill-rule="evenodd"/></svg>

<svg width="78" height="56" viewBox="0 0 78 56" fill="none" xmlns="http://www.w3.org/2000/svg">
<rect width="64" height="32" rx="16" transform="matrix(1 0 0 -1 7 44)" fill="#90939F"/>
<path d="M32.3334 28C32.3334 33.1546 28.1547 37.3333 23.0001 37.3333C17.8454 37.3333 13.6667 33.1546 13.6667 28C13.6667 22.8453 17.8454 18.6667 23.0001 18.6667C28.1547 18.6667 32.3334 22.8453 32.3334 28Z" fill="#fff"/>
<path fill-rule="evenodd" clip-rule="evenodd" d="M23 5H55C67.7025 5 78 15.2975 78 28C78 40.7025 67.7025 51 55 51H23C10.2975 51 0 40.7025 0 28C0 15.2975 10.2975 5 23 5ZM23 9C12.5066 9 4 17.5066 4 28C4 38.4934 12.5066 47 23 47H55C65.4934 47 74 38.4934 74 28C74 17.5066 65.4934 9 55 9H23Z" fill="#019AEB"/>
</svg>
